X:212
T:Reel 212
M:4/4
K:Gmaj
L:1/8
g2ba gfef|dece dcAc|GABc dedB|gdgb a2fe|dggf gabc'|d'bc'a d'bc'a|gbag fdef|gedc BGG2|d'e'd'b gfga|be'e'd' e'aac'|bc'd'b gfgb|c'e'd'b a2gc'|bd'd'b gagb|c'bag fgaf|gabc' d'be'd'| (3bc'd' af gedc|
